packages/katcn/src/icons/svg/passport.svg

<svg width="22" height="24" viewBox="0 0 22 24" fill="none" xmlns="http://www.w3.org/2000/svg">
<path fill-rule="evenodd" clip-rule="evenodd" d="M3 3.79104C3 2.25908 4.21571 1 5.76224 1H17.021C17.5733 1 18.021 1.44772 18.021 2C18.021 2.55228 17.5733 3 17.021 3H5.76224C5.35073 3 5 3.33296 5 3.79104C5 4.24913 5.35073 4.58209 5.76224 4.58209H15.3566C17.3927 4.58209 19 6.23918 19 8.26866V19.3134C19 21.3429 17.3927 23 15.3566 23H6.64336C6.6208 23 6.59826 22.9992 6.57576 22.9977C4.60634 22.8643 3 21.2562 3 19.2139V3.79104ZM5 6.47591V19.2139C5 20.1469 5.72787 20.9204 6.68072 21H15.3566C16.2577 21 17 20.269 17 19.3134V8.26866C17 7.31306 16.2577 6.58209 15.3566 6.58209H5.76224C5.49693 6.58209 5.24137 6.54504 5 6.47591Z" fill="black"/>
<path fill-rule="evenodd" clip-rule="evenodd" d="M11.1 10.8C10.2163 10.8 9.5 11.5163 9.5 12.4C9.5 13.2836 10.2163 14 11.1 14C11.9837 14 12.7 13.2836 12.7 12.4C12.7 11.5163 11.9837 10.8 11.1 10.8ZM7.5 12.4C7.5 10.4118 9.11178 8.79999 11.1 8.79999C13.0882 8.79999 14.7 10.4118 14.7 12.4C14.7 14.3882 13.0882 16 11.1 16C9.11178 16 7.5 14.3882 7.5 12.4Z" fill="black"/>
<path fill-rule="evenodd" clip-rule="evenodd" d="M8.29999 17.9C8.29999 17.3477 8.7477 16.9 9.29999 16.9H12.8C13.3523 16.9 13.8 17.3477 13.8 17.9C13.8 18.4523 13.3523 18.9 12.8 18.9H9.29999C8.7477 18.9 8.29999 18.4523 8.29999 17.9Z" fill="black"/>
</svg>

<svg xmlns="http://www.w3.org/2000/svg" fill="none" viewBox="0 0 22 24"><path fill="#000" fill-rule="evenodd" d="M3 3.791C3 2.259 4.216 1 5.762 1h11.259a1 1 0 1 1 0 2H5.762A.77.77 0 0 0 5 3.791c0 .458.35.791.762.791h9.595C17.393 4.582 19 6.24 19 8.27v11.044C19 21.343 17.393 23 15.357 23H6.643q-.034 0-.067-.002C4.606 22.864 3 21.256 3 19.214zm2 2.685v12.738c0 .933.728 1.706 1.68 1.786h8.677c.9 0 1.643-.731 1.643-1.687V8.27c0-.956-.742-1.687-1.643-1.687H5.762Q5.364 6.581 5 6.476" clip-rule="evenodd"/><path fill="#000" fill-rule="evenodd" d="M11.1 10.8a1.6 1.6 0 1 0 0 3.2 1.6 1.6 0 0 0 0-3.2m-3.6 1.6a3.6 3.6 0 1 1 7.2 0 3.6 3.6 0 0 1-7.2 0m.8 5.5a1 1 0 0 1 1-1h3.5a1 1 0 1 1 0 2H9.3a1 1 0 0 1-1-1" clip-rule="evenodd"/></svg>
